X: 2
T: Le Set De Americain
R: reel
M: 4/4
L: 1/8
K: Dmaj
B3 c dcde | f3 g fedc | B3 c dcdB | GFGA G2 F2 |
B3 c dcde | f3 g fede | fgfe dedc |1 Bbfd B3 :|2 Bbfd B2c2 ||
dAFA dAFA | eAfA eABc | dAFA dAFA | dcdf edBc |
dAFA dAFA | gAfA eABc | dcdf edBc | dfec d4  :|

